X:1
T:In vain would fortune - Webbe
T:#
%%score [ 1 2 3 ]
L:1/8
Q:1/4=96
M:4/4
K:F
V:1 treble nm="1" snm="1"
V:2 treble nm="2" snm="2"
V:3 treble nm="3" snm="3"
V:1
"^In vain would fortune""^Samuel Webbe \n(1740-1816)""^andante" c | (c>B A2) (Bd) | (cA) F2 z2 | %3
w: In|vain * * would *|for\- * tune|
 Bd f3 (e/d/) | d2 c2 c2 | (c=Bdc) (_BA) || (G3 A) (3(Bcd) | c>f A2 (ATG) | F4 z2 | F2 F2 F2 | %10
w: with tem- pes- tuous *|blast, * The|pre\- * * * sent *|pile * of * *|hap- pi- ness des\- *|troy.|Lock'd in the|
 F4 (_EC) | B,3 C D=E || F4 F2 | E4 F2 | (B,3 C) (3(DCB,) | A,>D C2 C2 | F4 z2 | (Ac) (f_e) (dc) | %18
w: sa- cred *|trea- sures of the|past, What|I have|once * pos\- * *|sess'd, I still en-|joy.|Lock'd * in * the *|
 (A3 F) (Ac) | dB d3 (c/B/) | (B2 A2) A2 | G4 F2 | F4 F2 | F>F F2 E2 | F4 z c | (c>B A2) (Bd) | %26
w: sa\- * cred *|trea- sures of the *|past, * What|I have|once pos-|sess'd, I still en-|joy. In|vain * * would *|
 (cA) F2 z2 | Bd f3 (e/d/) | d2 c2 c2 | (c=Bdc) (_BA) | (G3 A) (3(Bcd) | c>f A2 (ATG) | F4 z2 | %33
w: for\- * tune|with tem- pes- tuous *|blast, * The|pre\- * * * sent *|pile * of * *|hap- pi- ness des\- *|troy.|
 F2 F2 F2 | F4 (_EC) | B,3 C D=E | F4 F2 | E4 F2 | (B,3 C) (3(DCB,) | A,>D C2 C2 | F4 z2 | %41
w: Lock'd in the|sa- cred *|trea- sures of the|past, What|I have|once * pos\- * *|sess'd, I still en-|joy.|
 (Ac) (f_e) (dc) | (A3 F) (Ac) | dB d3 (c/B/) | (B2 A2) A2 | G4 F2 | F4 F2 | F>F F2 E2 | F4 z2 | %49
w: Lock'd * in * the *|sa\- * cred *|trea- sures of the *|past, * What|I have|once pos-|sess'd, I still en-|joy.|
 z6 | z6 | z6 |[M:3/4] z6 | z6 | z6 | z6 | z6 | z6 |[M:3/4] z6 | z6 | z6 | z6 | z6 | z6 | z6 |] %65
w: ||||||||||||||||
V:2
[K:C] z | z6 | z6 | z6 | z6 | z6 ||[K:F][M:3/4][K:treble] z6 | z6 | z4 z c | (c>B A2) (Bd) | %10
w: ||||||||In|vain * * would *|
 (cA) F2 z2 | Bd f3 (e/d/) || d2 c2 c2 | (c=Bdc) (_BA) | (G3 A) (3(Bcd) | c>f A2 (ATG) | F4 z2 | %17
w: for\- * tune|with tem- pes- tuous *|blast, * The|pre\- * * * sent *|pile * of * *|hap- pi- ness des\- *|troy.|
 F2 F2 F2 | F4 (_EC) | B,3 C D=E | F4 F2 | E4 F2 | (B,3 C) (3(DCB,) | A,>D C2 C2 | F4 z2 | %25
w: Lock'd in the|sa- cred *|trea- sures of the|past, What|I have|once * pos\- * *|sess'd, I still en-|joy.|
 (Ac) (f_e) (dc) | (A3 F) (Ac) | dB d3 (c/B/) | (B2 A2) A2 | G4 F2 | F4 F2 | F>F F2 E2 | F4 z c | %33
w: Lock'd * in * the *|sa\- * cred *|trea- sures of the *|past, * What|I have|once pos-|sess'd, I still en-|joy. In|
 (c>B A2) (Bd) | (cA) F2 z2 | Bd f3 (e/d/) | d2 c2 c2 | (c=Bdc) (_BA) | (G3 A) (3(Bcd) | %39
w: vain * * would *|for\- * tune|with tem- pes- tuous *|blast, * The|pre\- * * * sent *|pile * of * *|
 c>f A2 (ATG) | F4 z2 | F2 F2 F2 | F4 (_EC) | B,3 C D=E | F4 F2 | E4 F2 | (B,3 C) (3(DCB,) | %47
w: hap- pi- ness des\- *|troy.|Lock'd in the|sa- cred *|trea- sures of the|past, What|I have|once * pos\- * *|
 A,>D C2 C2 | F4 z2 | (Ac) (f_e) (dc) | (A3 F) (Ac) | dB d3 (c/B/) | (B2 A2) A2 | G4 F2 | F4 F2 | %55
w: sess'd, I still en-|joy.|Lock'd * in * the *|sa\- * cred *|trea- sures of the *|past, * What|I have|once pos-|
 F>F F2 E2 | F4 z2 | z6 |[M:3/4] z6 | z6 | z6 | z6 | z6 | z6 | z6 |] %65
w: sess'd, I still en-|joy.|||||||||
V:3
[K:C] z | z6 | z6 | z6 | z6 | z6 ||[M:3/4] z6 | z6 | z6 | z6 | z6 | z6 || %12
w: ||||||||||||
[K:F][M:3/4][K:treble] z6 | z6 | z6 | z6 | z4 z c | (c>B A2) (Bd) | (cA) F2 z2 | Bd f3 (e/d/) | %20
w: ||||In|vain * * would *|for\- * tune|with tem- pes- tuous *|
 d2 c2 c2 | (c=Bdc) (_BA) | (G3 A) (3(Bcd) | c>f A2 (ATG) | F4 z2 | F2 F2 F2 | F4 (_EC) | %27
w: blast, * The|pre\- * * * sent *|pile * of * *|hap- pi- ness des\- *|troy.|Lock'd in the|sa- cred *|
 B,3 C D=E | F4 F2 | E4 F2 | (B,3 C) (3(DCB,) | A,>D C2 C2 | F4 z2 | (Ac) (f_e) (dc) | %34
w: trea- sures of the|past, What|I have|once * pos\- * *|sess'd, I still en-|joy.|Lock'd * in * the *|
 (A3 F) (Ac) | dB d3 (c/B/) | (B2 A2) A2 | G4 F2 | F4 F2 | F>F F2 E2 | F4 z c | (c>B A2) (Bd) | %42
w: sa\- * cred *|trea- sures of the *|past, * What|I have|once pos-|sess'd, I still en-|joy. In|vain * * would *|
 (cA) F2 z2 | Bd f3 (e/d/) | (d2 c2) c2 | (c=Bdc) (_BA) | (G3 A) (3(Bcd) | c>f A2 (ATG) | F4 z2 | %49
w: for\- * tune|with tem- pes- tuous *|blast, * The|pre\- * * * sent *|pile * of * *|hap- pi- ness des\- *|troy.|
 F2 F2 F2 | F4 (_EC) | B,3 C D=E | F4 F2 | E4 F2 | (B,3 C) (3(DCB,) | A,>D C2 C2 | F4 z2 | %57
w: Lock'd in the|sa- cred *|trea- sures of the|past, What|I have|once * pos\- * *|sess'd, I still en-|joy.|
 (Ac) (f_e) (dc) | (A3 F) (Ac) | dB d3 (c/B/) | (B2 A2) A2 | G4 F2 | F4 F2 | F>F F2 E2 | F4 z2 |] %65
w: Lock'd * in * the *|sa\- * cred *|trea- sures of the *|past, * What|I have|once pos-|sess'd, I still en-|joy.|

